icons/drive-line.svg

<svg xmlns="http://www.w3.org/2000/svg" width="24" height="24" fill="none"><g clip-path="url(#a)"><g><path fill="#121212" d="M9.097 6.15002L4.31 14.443L6.065 17.475L10.85 9.18502L9.097 6.15002ZM7.797 18.474H17.365L19.116 15.44H9.55L7.798 18.474H7.797ZM19.111 13.44L14.325 5.15002H10.83L15.617 13.44H19.112H19.111ZM8.52 3.15002H15.48L22 14.444L18.52 20.474H5.49L2 14.444L8.52 3.15002ZM12.005 11.186L10.703 13.44H13.306L12.005 11.186Z"/></g></g><defs><clipPath id="a"><rect width="24" height="24" fill="white"/></clipPath></defs></svg>

<svg width="24" height="24" fill="none" xmlns="http://www.w3.org/2000/svg"><g clip-path="url(#a)"><path d="M9.097 6.15 4.31 14.443l1.755 3.032 4.785-8.29L9.097 6.15Zm-1.3 12.324h9.568l1.751-3.034H9.55l-1.752 3.034h-.001Zm11.314-5.034-4.786-8.29H10.83l4.787 8.29h3.495-.001ZM8.52 3.15h6.96L22 14.444l-3.48 6.03H5.49L2 14.444 8.52 3.15Zm3.485 8.036-1.302 2.254h2.603l-1.301-2.254Z" /></g><defs><clipPath id="a"><path fill="#fff" d="M0 0h24v24H0z"/></clipPath></defs></svg>
